_site/images/homepage/pricing.svg

<svg fill="none" height="30" viewBox="0 0 30 30" width="30" xmlns="http://www.w3.org/2000/svg"><rect fill="#00b6ab" height="30" rx="7" width="30"/><path clip-rule="evenodd" d="m15 6c-4.9706 0-9 4.0294-9 9s4.0294 9 9 9 9-4.0294 9-9c0-2.3869-.9482-4.6761-2.636-6.36396-1.6879-1.68783-3.9771-2.63604-6.364-2.63604zm2.454 6.5454c.4519 0 .8182-.3663.8182-.8182 0-.4518-.3663-.8181-.8182-.8181h-1.6363v-.8182c0-.45188-.3663-.81819-.8182-.81819s-.8182.36631-.8182.81819v.8182c-1.3556 0-2.4545 1.0989-2.4545 2.4545s1.0989 2.4546 2.4545 2.4546h1.6364c.4518 0 .8182.3663.8182.8181 0 .4519-.3664.8182-.8182.8182h-3.2728c-.4518 0-.8181.3663-.8181.8182s.3663.8182.8181.8182h1.6364v.8182c0 .4518.3663.8181.8182.8181s.8182-.3663.8182-.8181v-.8182c1.3556 0 2.4545-1.0989 2.4545-2.4546 0-1.3556-1.0989-2.4545-2.4545-2.4545h-1.6364c-.4519 0-.8182-.3663-.8182-.8182s.3663-.8182.8182-.8182zm-9.81778 2.4547c0 4.0668 3.29678 7.3636 7.36368 7.3636 4.0668 0 7.3636-3.2968 7.3636-7.3636s-3.2968-7.36363-7.3636-7.36363c-4.0669 0-7.36368 3.29683-7.36368 7.36363z" fill="#fff" fill-rule="evenodd"/></svg>

<svg width="30" height="30" viewBox="0 0 30 30" fill="none" xmlns="http://www.w3.org/2000/svg">
<rect width="30" height="30" rx="7" fill="#00B6AB"/>
<path fill-rule="evenodd" clip-rule="evenodd" d="M15 6C10.0294 6 6 10.0294 6 15C6 19.9706 10.0294 24 15 24C19.9706 24 24 19.9706 24 15C24 12.6131 23.0518 10.3239 21.364 8.63604C19.6761 6.94821 17.3869 6 15 6ZM17.454 12.5454C17.9059 12.5454 18.2722 12.1791 18.2722 11.7272C18.2722 11.2754 17.9059 10.9091 17.454 10.9091H15.8177V10.0909C15.8177 9.63902 15.4514 9.27271 14.9995 9.27271C14.5476 9.27271 14.1813 9.63902 14.1813 10.0909V10.9091C12.8257 10.9091 11.7268 12.008 11.7268 13.3636C11.7268 14.7192 12.8257 15.8182 14.1813 15.8182H15.8177C16.2695 15.8182 16.6359 16.1845 16.6359 16.6363C16.6359 17.0882 16.2695 17.4545 15.8177 17.4545H12.5449C12.0931 17.4545 11.7268 17.8208 11.7268 18.2727C11.7268 18.7246 12.0931 19.0909 12.5449 19.0909H14.1813V19.9091C14.1813 20.3609 14.5476 20.7272 14.9995 20.7272C15.4514 20.7272 15.8177 20.3609 15.8177 19.9091V19.0909C17.1733 19.0909 18.2722 17.992 18.2722 16.6363C18.2722 15.2807 17.1733 14.1818 15.8177 14.1818H14.1813C13.7294 14.1818 13.3631 13.8155 13.3631 13.3636C13.3631 12.9117 13.7294 12.5454 14.1813 12.5454H17.454ZM7.63622 15.0001C7.63622 19.0669 10.933 22.3637 14.9999 22.3637C19.0667 22.3637 22.3635 19.0669 22.3635 15.0001C22.3635 10.9333 19.0667 7.63647 14.9999 7.63647C10.933 7.63647 7.63622 10.9333 7.63622 15.0001Z" fill="white"/>
</svg>
